X: 728
T: Mawang xiaodiao
L: 1/16
M: 2/4
K: A
e2 e2 a2 f e [I:setbarnb 1]| 
d2 e2B4 | 
e2 e c B2 B F | 
A8 | 
e2> c2 B2 c2 | 
A2> F2E4 | 
A B G F E F E B, | 
E8 |]

@@@ Tune index: 9602
